_includes/icons/color-embassy.svg

<svg fill="#666" height="50" viewBox="0 0 48 48" width="50" xmlns="http://www.w3.org/2000/svg"><path d="m7 13h34v6h-34z" fill="#29b6f6"/><path d="m29 8v4h-2.199219c-2.402343 0-1.199218-1-4.800781-1v-4c3.601563 0 2.398438 1 4.800781 1z" fill="#a0f"/><path d="m4 19h40v20h-40z" fill="#81d4fa"/><g fill="#0288d1"><path d="m29 37h-10v-3c0-2.800781 2.199219-5 5-5s5 2.199219 5 5z"/><path d="m31 29h4v8h-4z"/><path d="m37 29h4v8h-4z"/><path d="m13 29h4v8h-4z"/><path d="m7 29h4v8h-4z"/><path d="m23 27h-4v-4c0-1.101562.898438-2 2-2 1.101563 0 2 .898438 2 2z"/><path d="m29 27h-4v-4c0-1.101562.898438-2 2-2 1.101563 0 2 .898438 2 2z"/><path d="m35 27h-4v-4c0-1.101562.898438-2 2-2 1.101563 0 2 .898438 2 2z"/><path d="m41 27h-4v-4c0-1.101562.898438-2 2-2 1.101563 0 2 .898438 2 2z"/><path d="m17 27h-4v-4c0-1.101562.898438-2 2-2 1.101563 0 2 .898438 2 2z"/><path d="m11 27h-4v-4c0-1.101562.898438-2 2-2 1.101563 0 2 .898438 2 2z"/></g><g fill="#0277bd"><path d="m25 15h2v2h-2z"/><path d="m29 15h2v2h-2z"/><path d="m33 15h2v2h-2z"/><path d="m9 15h2v2h-2z"/><path d="m13 15h2v2h-2z"/><path d="m17 15h2v2h-2z"/><path d="m37 15h2v2h-2z"/><path d="m21 15h2v2h-2z"/></g></svg>

<svg xmlns="http://www.w3.org/2000/svg" viewBox="0 0 48 48" width="50" height="50" fill="#666"><path d="M 7 13 L 41 13 L 41 19 L 7 19 Z" fill="#29b6f6"/><path d="M 29 8 L 29 12 L 26.800781 12 C 24.398438 12 25.601563 11 22 11 L 22 7 C 25.601563 7 24.398438 8 26.800781 8 Z" fill="#a0f"/><path d="M 4 19 L 44 19 L 44 39 L 4 39 Z" fill="#81d4fa"/><path d="M 29 37 L 19 37 L 19 34 C 19 31.199219 21.199219 29 24 29 C 26.800781 29 29 31.199219 29 34 Z" fill="#0288d1"/><path d="M 31 29 L 35 29 L 35 37 L 31 37 Z" fill="#0288d1"/><path d="M 37 29 L 41 29 L 41 37 L 37 37 Z" fill="#0288d1"/><path d="M 13 29 L 17 29 L 17 37 L 13 37 Z" fill="#0288d1"/><path d="M 7 29 L 11 29 L 11 37 L 7 37 Z" fill="#0288d1"/><path d="M 23 27 L 19 27 L 19 23 C 19 21.898438 19.898438 21 21 21 C 22.101563 21 23 21.898438 23 23 Z" fill="#0288d1"/><path d="M 29 27 L 25 27 L 25 23 C 25 21.898438 25.898438 21 27 21 C 28.101563 21 29 21.898438 29 23 Z" fill="#0288d1"/><path d="M 35 27 L 31 27 L 31 23 C 31 21.898438 31.898438 21 33 21 C 34.101563 21 35 21.898438 35 23 Z" fill="#0288d1"/><path d="M 41 27 L 37 27 L 37 23 C 37 21.898438 37.898438 21 39 21 C 40.101563 21 41 21.898438 41 23 Z" fill="#0288d1"/><path d="M 17 27 L 13 27 L 13 23 C 13 21.898438 13.898438 21 15 21 C 16.101563 21 17 21.898438 17 23 Z" fill="#0288d1"/><path d="M 11 27 L 7 27 L 7 23 C 7 21.898438 7.898438 21 9 21 C 10.101563 21 11 21.898438 11 23 Z" fill="#0288d1"/><path d="M 25 15 L 27 15 L 27 17 L 25 17 Z" fill="#0277bd"/><path d="M 29 15 L 31 15 L 31 17 L 29 17 Z" fill="#0277bd"/><path d="M 33 15 L 35 15 L 35 17 L 33 17 Z" fill="#0277bd"/><path d="M 9 15 L 11 15 L 11 17 L 9 17 Z" fill="#0277bd"/><path d="M 13 15 L 15 15 L 15 17 L 13 17 Z" fill="#0277bd"/><path d="M 17 15 L 19 15 L 19 17 L 17 17 Z" fill="#0277bd"/><path d="M 37 15 L 39 15 L 39 17 L 37 17 Z" fill="#0277bd"/><path d="M 21 15 L 23 15 L 23 17 L 21 17 Z" fill="#0277bd"/></svg>
